packages/icons/web/cash_atm_large.svg

<svg width="24" height="24" viewBox="0 0 24 24" fill="none" xmlns="http://www.w3.org/2000/svg">
<path d="M6.5 7L6.5 18C6.5 18.5523 6.94771 19 7.5 19L16.5 19C17.0523 19 17.5 18.5523 17.5 18L17.5 7" stroke="#212933" stroke-width="2"/>
<path d="M21 8L21 7C21 6.44772 20.5523 6 20 6L4 6C3.44772 6 3.00001 6.44772 3.00001 7L3 8" stroke="#212933" stroke-width="2" stroke-linecap="round" stroke-linejoin="round"/>
<path d="M14.0856 19.1195C13.7242 17.7463 14.4108 15 17.8799 15" stroke="#212933" stroke-width="1.75"/>
<path d="M9.7943 19.1195C10.1557 17.7463 9.46908 15 6 15" stroke="#212933" stroke-width="1.75"/>
<circle cx="12" cy="8" r="2.125" stroke="#212933" stroke-width="1.75"/>
</svg>

<svg width="24" height="24" fill="none" xmlns="http://www.w3.org/2000/svg">
    <path d="M6.5 7v11a1 1 0 001 1h9a1 1 0 001-1V7" stroke="currentColor" stroke-width="2"/>
    <path d="M21 8V7a1 1 0 00-1-1H4a1 1 0 00-1 1v1" stroke="currentColor" stroke-width="2" stroke-linecap="round" stroke-linejoin="round"/>
    <path d="M14.086 19.12c-.362-1.374.325-4.12 3.794-4.12m-8.086 4.12C10.156 17.745 9.47 15 6 15" stroke="currentColor" stroke-width="1.75"/>
    <circle cx="12" cy="8" r="2.125" stroke="currentColor" stroke-width="1.75"/>
</svg>
